icons/map-outline.svg

<svg width="24" height="24" viewBox="0 0 24 24" fill="none" xmlns="http://www.w3.org/2000/svg">
<path d="M8.704 4.00001C9.036 3.99901 9.468 4.06701 10 4.20301L14.95 5.38601L19.469 4.08801C19.7712 4.0002 20.0893 3.98176 20.3995 4.03405C20.7098 4.08634 21.0043 4.20802 21.261 4.39001C21.731 4.73001 22 5.24101 22 5.79001V17.128C22 17.911 21.452 18.595 20.636 18.83L16.316 19.914C16.0203 19.973 15.7195 20.0018 15.418 20C15.086 20.001 14.718 19.957 14.316 19.866L9 18.612L4.531 19.919C4.34099 19.9728 4.14447 20 3.947 20C3.514 20 3.087 19.868 2.739 19.615C2.269 19.275 2 18.765 2 18.215V7.08801C2 6.30301 2.548 5.61901 3.365 5.38601L7.451 4.20301C7.954 4.06901 8.371 4.00101 8.704 4.00001ZM4 7.12501V17.915L8 16.816V6.00001L4 7.12501ZM16 7.12501V17.915L20 16.816V6.00001L16 7.12501ZM14 7.12501L10 6.00001V16.816L14 17.916V7.12401V7.12501Z" fill="#3A3A47"/>
</svg>

<svg xmlns="http://www.w3.org/2000/svg" width="24" height="24" viewBox="0 0 24 24">
    <path fill="#3A3A47" fill-rule="evenodd" d="M8.704 4c.285-.001.643.049 1.074.149l.222.054 4.95 1.183 4.519-1.298a2.09 2.09 0 0 1 1.792.302c.423.307.683.75.731 1.237l.008.164v11.337c0 .734-.482 1.381-1.214 1.653l-.15.05-4.32 1.083a4.456 4.456 0 0 1-.898.086 4.655 4.655 0 0 1-.865-.085l-.237-.049L9 18.612l-4.469 1.307a2.145 2.145 0 0 1-.584.081c-.433 0-.86-.132-1.208-.385a1.735 1.735 0 0 1-.731-1.236L2 18.215V7.088c0-.736.482-1.383 1.215-1.653l.15-.05 4.086-1.182c.503-.134.92-.202 1.253-.203zM8 6L4 7.125v10.79l4-1.099V6zm12 0l-4 1.125v10.79l4-1.099V6zM10 6v10.816l4 1.1V7.124L10 6z"/>
</svg>
